X:1
T:THE POISON DRAFT
M:2/4
Q:1/4=120
K:F
c8|F2F2A2c2|F4d2B2|c6d2|c2B2A2G2|F4A2c2|F4d2B2|
c8|-c4F4|d4d2c2|d2c2B2A2|G6A2|B4d4|d4e2d2|
c2B2A2G2|F8|-F7/2||
